remix/Logos/npmjs-fill.svg

<svg viewBox="0 0 24 24" fill="currentColor" xmlns="http://www.w3.org/2000/svg"><path d="M20.001 3C20.5533 3 21.001 3.44772 21.001 4V20C21.001 20.5523 20.5533 21 20.001 21H4.00098C3.44869 21 3.00098 20.5523 3.00098 20V4C3.00098 3.44772 3.44869 3 4.00098 3H20.001ZM17.001 7H7.00098V17H12.001V9.5H14.501V17H17.001V7Z"/></svg>

<svg viewBox="0 0 24 24" xmlns="http://www.w3.org/2000/svg"><path fill="none" d="M0 0h24v24H0Z"/><path d="M20 3c.55 0 1 .44 1 1v16c0 .55-.45 1-1 1H4c-.552 0-1-.45-1-1V4c0-.552.44-1 1-1h16Zm-3 4H7v10h5V9.5h2.5V17H17V7Z"/></svg>
